RestoDelMundo/Brasil/Otras Categorias/Defele  Df.svg

<svg xmlns="http://www.w3.org/2000/svg" viewBox="0 0 612 792"><path d="M145.161 507.773c-19.667-30.835-46.035-54.131-76.591-74.914 46.472-51.435 62.788-109.991 76.591-159.332 13.803 49.341 30.119 107.897 76.591 159.332-30.557 20.783-56.925 44.079-76.591 74.914zM305.782 507.773c-19.667-30.835-46.035-54.131-76.591-74.914 46.472-51.435 62.788-109.991 76.591-159.332 13.803 49.341 30.119 107.897 76.591 159.332-30.557 20.783-56.925 44.079-76.591 74.914zM466.402 507.773c-19.667-30.835-46.035-54.131-76.591-74.914 46.472-51.435 62.788-109.991 76.591-159.332 13.803 49.341 30.119 107.897 76.591 159.332-30.556 20.783-56.924 44.079-76.591 74.914z" style="fill-rule:evenodd;clip-rule:evenodd;fill:#fff;stroke:#ed1c24;stroke-width:11.3386;stroke-miterlimit:2.6131"/><path fill="#ed1c24" d="M123.097 389.812h24.898c4.899 0 8.863.669 11.894 1.995 3.017 1.338 5.517 3.245 7.487 5.732 1.969 2.5 3.396 5.391 4.293 8.699.884 3.308 1.326 6.805 1.326 10.505 0 5.795-.657 10.29-1.982 13.484-1.313 3.195-3.144 5.871-5.492 8.018q-3.504 3.238-7.538 4.318c-3.674.985-7.008 1.477-9.987 1.477h-24.898v-54.228zm16.754 12.285v29.621h4.103c3.51 0 5.998-.379 7.475-1.161 1.477-.77 2.639-2.134 3.485-4.065.833-1.932 1.25-5.076 1.25-9.419 0-5.745-.935-9.672-2.803-11.793-1.881-2.121-4.987-3.182-9.331-3.182zM287.871 389.812h41.439v11.654h-24.608v9.469h21.01v10.947h-21.01v22.159h-16.831zM203.201 465.146h41.438V476.8h-24.608v9.469h21.01v10.947h-21.01v22.159h-16.83zM399.856 497.216l14.684 4.444c-.985 4.116-2.538 7.551-4.659 10.316s-4.76 4.848-7.904 6.25c-3.144 1.414-7.146 2.109-11.995 2.109-5.896 0-10.719-.859-14.444-2.563-3.737-1.717-6.969-4.735-9.684-9.053-2.702-4.318-4.065-9.835-4.065-16.565 0-8.977 2.386-15.883 7.159-20.694 4.773-4.823 11.528-7.235 20.252-7.235 6.831 0 12.197 1.376 16.111 4.141q5.871 4.148 8.712 12.727l-14.797 3.296q-.777-2.481-1.629-3.636a9.74 9.74 0 0 0-3.434-2.955c-1.364-.694-2.879-1.035-4.558-1.035-3.788 0-6.704 1.528-8.724 4.583-1.528 2.273-2.298 5.833-2.298 10.694 0 6.023.922 10.139 2.74 12.374 1.831 2.235 4.394 3.346 7.689 3.346 3.207 0 5.631-.897 7.273-2.702 1.639-1.794 2.826-4.408 3.571-7.842M447.716 389.812h16.767v40.87h26.149v13.359h-42.916z"/></svg>

<svg enable-background="new 0 0 612 792" viewBox="0 0 612 792" xmlns="http://www.w3.org/2000/svg"><g><path d="M 145.161 507.773 c -19.667 -30.835 -46.035 -54.131 -76.591 -74.914 c 46.472 -51.435 62.788 -109.991 76.591 -159.332 c 13.803 49.341 30.119 107.897 76.591 159.332 C 191.195 453.642 164.827 476.938 145.161 507.773 L 145.161 507.773 z" style="fill-rule:evenodd;clip-rule:evenodd;fill:#fff;stroke:#ed1c24;stroke-width:11.3386;stroke-miterlimit:2.6131"/><path d="M 305.782 507.773 c -19.667 -30.835 -46.035 -54.131 -76.591 -74.914 c 46.472 -51.435 62.788 -109.991 76.591 -159.332 c 13.803 49.341 30.119 107.897 76.591 159.332 C 351.816 453.642 325.448 476.938 305.782 507.773 L 305.782 507.773 z" style="fill-rule:evenodd;clip-rule:evenodd;fill:#fff;stroke:#ed1c24;stroke-width:11.3386;stroke-miterlimit:2.6131"/><path d="M 466.402 507.773 c -19.667 -30.835 -46.035 -54.131 -76.591 -74.914 c 46.472 -51.435 62.788 -109.991 76.591 -159.332 c 13.803 49.341 30.119 107.897 76.591 159.332 C 512.437 453.642 486.069 476.938 466.402 507.773 L 466.402 507.773 z" style="fill-rule:evenodd;clip-rule:evenodd;fill:#fff;stroke:#ed1c24;stroke-width:11.3386;stroke-miterlimit:2.6131"/><path d="M 123.097 389.812 h 24.898 c 4.899 0 8.863 .669 11.894 1.995 c 3.017 1.338 5.517 3.245 7.487 5.732 c 1.969 2.5 3.396 5.391 4.293 8.699 c .884 3.308 1.326 6.805 1.326 10.505 c 0 5.795 -.657 10.29 -1.982 13.484 c -1.313 3.195 -3.144 5.871 -5.492 8.018 c -2.336 2.159 -4.848 3.598 -7.538 4.318 c -3.674 .985 -7.008 1.477 -9.987 1.477 h -24.898 V 389.812 L 123.097 389.812 z M 139.851 402.097 v 29.621 h 4.103 c 3.51 0 5.998 -.379 7.475 -1.161 c 1.477 -.77 2.639 -2.134 3.485 -4.065 c .833 -1.932 1.25 -5.076 1.25 -9.419 c 0 -5.745 -.935 -9.672 -2.803 -11.793 c -1.881 -2.121 -4.987 -3.182 -9.331 -3.182 H 139.851 L 139.851 402.097 z" fill="#ed1c24"/><path d="M 287.871 389.812 L 329.31 389.812 L 329.31 401.466 L 304.702 401.466 L 304.702 410.935 L 325.712 410.935 L 325.712 421.882 L 304.702 421.882 L 304.702 444.041 L 287.871 444.041 L 287.871 389.812 Z" fill="#ed1c24"/><path d="M 203.201 465.146 L 244.639 465.146 L 244.639 476.8 L 220.031 476.8 L 220.031 486.269 L 241.041 486.269 L 241.041 497.216 L 220.031 497.216 L 220.031 519.375 L 203.201 519.375 L 203.201 465.146 Z" fill="#ed1c24"/><path d="M 399.856 497.216 l 14.684 4.444 c -.985 4.116 -2.538 7.551 -4.659 10.316 c -2.121 2.765 -4.76 4.848 -7.904 6.25 c -3.144 1.414 -7.146 2.109 -11.995 2.109 c -5.896 0 -10.719 -.859 -14.444 -2.563 c -3.737 -1.717 -6.969 -4.735 -9.684 -9.053 c -2.702 -4.318 -4.065 -9.835 -4.065 -16.565 c 0 -8.977 2.386 -15.883 7.159 -20.694 c 4.773 -4.823 11.528 -7.235 20.252 -7.235 c 6.831 0 12.197 1.376 16.111 4.141 c 3.914 2.765 6.818 7.008 8.712 12.727 l -14.797 3.296 c -.518 -1.654 -1.061 -2.866 -1.629 -3.636 c -.934 -1.276 -2.083 -2.26 -3.434 -2.955 c -1.364 -.694 -2.879 -1.035 -4.558 -1.035 c -3.788 0 -6.704 1.528 -8.724 4.583 c -1.528 2.273 -2.298 5.833 -2.298 10.694 c 0 6.023 .922 10.139 2.74 12.374 c 1.831 2.235 4.394 3.346 7.689 3.346 c 3.207 0 5.631 -.897 7.273 -2.702 C 397.924 503.264 399.111 500.65 399.856 497.216 L 399.856 497.216 z" fill="#ed1c24"/><path d="M 447.716 389.812 L 464.483 389.812 L 464.483 430.682 L 490.632 430.682 L 490.632 444.041 L 447.716 444.041 L 447.716 389.812 Z" fill="#ed1c24"/></g></svg>
